!!!!SEGMENT: pl-wnifc--13846--103_anonim--piesni-polskie-i-ruskie-ludu-galicyjskiego-103-kiedy-okropna-cichosc-panuje.krn
!!!cenid: 18xx:3325
!!!COM: Anonim
!!!COM-rismID: pe30004985
!!!CDT:
!!!CNT:
!!!GTL: Pieśni polskie i ruskie ludu galicyjskiego
!!!OTL: 103. Kiedy okropna cichość panuje
!!!PDT: 1833
!!!AGN:
!!!SMS-siglum: PL-Wnifc
!!!SMS-shelfmark: 13846
!!!SMS-shelfwork: 103 G
!!!SMS-variant:
!!!SMS-altvar:
!!!NIFC-rismSourceID: 1001039214
!!!NIFC-islandoraID:
!!!URL-pdf-islandora:
!!!URL-scan:
!!!ONB-nifc:
!!!OMD: Andante
!!!AIN: 1 piano 1 vox
!!!key: g
**kern	**kern	**dynam	**kern	**text
*part2	*part2	*part2	*part1	*part1
*group2	*group2	*	*group1	*group1
*staff3	*staff2	*	*staff1	*staff1
*I"[FORTEPIAN.]	*I"[FORTEPIAN.]	*	*I"[GŁOS.]	*
*Ipiano	*Ipiano	*	*Ivox	*
*ICklav	*ICklav	*	*ICvox	*
*IGacmp	*IGacmp	*	*Gsolo	*
*clefF4	*clefG2	*	*clefG2	*
*k[e-b-]	*k[e-b-]	*	*k[e-b-]	*
*g:	*g:	*	*g:	*
*M2/4	*M2/4	*	*M2/4	*
=1-	=1-	=1-	=1-	=1-
*^	*	*	*	*
!LO:TX:t=P:problem:mixed beam	!	!	!	!	!
!LO:N:vis=2	!	!	!	!LO:TX:a:B:t=E.120.	!
(8GG/L	2GG\	4g/	.	4g/	Kie-
8B-\	.	.	.	.	.
8G\	.	8.b-\	.	8.b-\	-dy
8B-\J)	.	.	.	.	.
.	.	16dd\	.	16dd\	o-
*v	*v	*	*	*	*
=2	=2	=2	=2	=2
(8G\L	(4.dd\	.	4.dd\	-kro-
8B-\	.	.	.	.
8G\	.	.	.	.
8d\J)	16cc\LL	.	8cc\	-pna
.	16b-\JJ)	.	.	.
=3	=3	=3	=3	=3
*^	*	*	*	*
2d/	8G\L	8.b-\L	.	(8.b-\L	ci-
.	(>8D\	.	.	.	.
.	.	16a/Jk	.	16a/Jk)	.
.	8G\	16cc\LL	.	(16cc\LL	-chość
.	.	16b-\	.	16b-\	.
.	8B-\J)	16a\	.	16a/JJ)	.
.	.	16g\JJ	.	16g/	pa-
*v	*v	*	*	*	*
!!linebreak:original
=4	=4	=4	=4	=4
*	*^	*	*	*
8A\^<L	(<8.g/L	4d\	.	(8.g/L	-nu-
8D\	.	.	.	.	.
.	16f#X/Jk)	.	.	16f#X/Jk)	.
8A\^<	4f#/	4d\	.	4f#/	-je,
8D\J	.	.	.	.	.
=5	=5	=5	=5	=5	=5
!LO:TX:t=P:problem:mixed beam	!	!	!	!	!
(8BB-/L	4b-X/ 4fn/	4d\	.	4b-\	i
8B-\	.	.	.	.	.
8F\	8.dd/L 8.b-/	8.f\L	.	8.dd\	zda
8D\J)	.	.	.	.	.
.	16ff/Jk 16b-/ 16f/	16f\Jk	.	16ff\	się
*	*v	*v	*	*	*
=6	=6	=6	=6	=6
(8BB-/L	4.ff\ 4.b-\ 4.f\	.	4.ff\	wszyst-
8FF/	.	.	.	.
8DD/	.	.	.	.
8BBB-/J)	8dd\ 8b-\ 8f\	.	8dd\	-ko
=7	=7	=7	=7	=7
.	8qdd/	.	8qdd/	.
4EE-/	4cc#X\ 4g\	.	4cc#X\	spo-
4E-/ 4EE-/	4cc#\ 4g\	.	4cc#\	-czy-
=8	=8	=8	=8	=8
4.D/ 4.DD/	4.dd\ 4.f#X\	.	4.dd\	-wać
8r	8r	.	8r	.
!!linebreak:original
=9||	=9||	=9||	=9||	=9||
!LO:TX:t=P:problem:mixed beam	!	!	!	!
8GG/L	4g/	.	4g/	wol-
(8B-\	.	.	.	.
8G\	8.b-\L	.	8.b-\	-no
8B-\J)	.	.	.	.
.	16dd\Jk	.	16dd\	mi
=10	=10	=10	=10	=10
(8G\L	4.dd\	.	4.dd\	pła-
8B-\	.	.	.	.
8G\	.	.	.	.
8d\J)	(16cc\LL	.	(16cc\LL	-kać
.	16b-\JJ)	.	16b-\JJ)	.
=11	=11	=11	=11	=11
*^	*	*	*	*
2d/	(>8G\L	8.b-\L	.	8.b-\L	na
.	&(>8D\)	.	.	.	.
.	.	16a\Jk	.	16a\Jk	.
.	8G\	(16cc\LL	.	(16cc\LL	to
.	.	16b-\	.	16b-\	.
.	8D\J&)	16a\)	.	16a/JJ)	.
.	.	16g`\JJ	.	16g/	co
=12	=12	=12	=12	=12	=12
2d/	8A\L	(8.g/L	.	(8.g/L	czu-
.	8D\	.	.	.	.
.	.	16f#X/Jk)	.	16f#X/Jk)	.
.	8A\	4f#/	.	4f#/	-ję,
.	8D\J	.	.	.	.
!!linebreak:original
=13	=13	=13	=13	=13	=13
*	*	*^	*	*	*
2A/	2F#X\ 2C\	(<8.ee-/L	2e-\^	.	(8.ee-\L	wszak
.	.	16cc/K)	.	.	16cc\Jk)	.
.	.	8cc/	.	.	8cc\	noc
.	.	8cc/J	.	.	8cc\	łzy
=14	=14	=14	=14	=14	=14	=14
2G/ 2BB-/	2BB-\	(<8dd/L	2d\	>	(8dd\L	bę-
.	.	&(<8b-/)	.	.	8b-\	.
.	.	8a/	.	.	8a/J)	.
.	.	8g/J&)	.	]	8g/	-dzie
*v	*v	*	*	*	*	*
*	*v	*v	*	*	*
=15	=15	=15	=15	=15
4D/ 4DD/	8.f#X/L 8.c/ 8.A/	.	(8.f#X/L	po-
.	16a/Jk	.	16a/Jk)	.
!	!	!	!LO:TX:t=P:problem:mixed beam	!
!	!	!	!LO:N:vis=8	!
4D/ 4DD/	8.dd/L 8.d/^	.	8.dd\L	-kry-
.	16f#/Jk 16c/	.	16f#/Jk	.
=16	=16	=16	=16	=16
4.GG/	4.g/ 4.B-/	.	4.g/	-wać.
8r	8r	.	8r	.
==	==	==	==	==
*-	*-	*-	*-	*-
!!!system-decoration: g1{(g2)}
!!!RDF**kern: > = above
!!!RDF**kern: < = below
!!!RDF**kern: | = vertical stroke
!!!ENC: Katarzyna Serwa
!!!END: 2021-11-11
!!!YEC: Copyright 2022 Narodowy Instytut Fryderyka Chopina (https://polishscores.org)
!!!YEM: Licence CC BY 4.0 (https://creativecommons.org/licenses/by/4.0)
